src/icons/aws-ec2-vpc.svg

<?xml version="1.0" encoding="UTF-8"?>
<svg xmlns="http://www.w3.org/2000/svg" xmlns:xlink="http://www.w3.org/1999/xlink" width="46.545455" height="32" viewBox="0 0 46.545455 32" version="1.1">
<g id="surface1">
<path style=" stroke:none;fill-rule:evenodd;fill:rgb(61.56863%,31.764707%,14.509805%);fill-opacity:1;" d="M 46.546875 21.589844 L 46.546875 23.800781 C 46.546875 27.835938 42.332031 32 37.148438 32 L 9.40625 32 C 4.21875 32 0.0078125 27.835938 0.0078125 23.800781 L 0.0078125 21.589844 Z M 46.546875 21.589844 "/>
<path style=" stroke:none;fill-rule:evenodd;fill:rgb(96.078432%,52.156866%,20.784314%);fill-opacity:1;" d="M 17.917969 0 C 22.589844 -0.0078125 26.832031 2.859375 28.765625 7.332031 C 30.578125 6.027344 32.917969 5.863281 34.882812 6.898438 C 36.84375 7.933594 38.117188 10.007812 38.203125 12.3125 C 42.894531 12.722656 46.546875 17.480469 46.546875 21.253906 L 46.546875 22.074219 C 46.546875 26.132812 42.332031 30.25 37.125 30.25 L 9.40625 30.25 C 4.214844 30.25 0 26.132812 0 22.074219 L 0 21.261719 C 0 18.132812 2.503906 13.828125 6.023438 12.757812 L 6.023438 12.40625 C 6.035156 9.101562 7.296875 5.9375 9.527344 3.613281 C 11.757812 1.285156 14.777344 -0.0117188 17.917969 0 Z M 17.917969 0 "/>
<path style=" stroke:none;fill-rule:evenodd;fill:rgb(100%,100%,100%);fill-opacity:1;" d="M 11.28125 14.515625 L 13.125 14.515625 L 14.972656 23.671875 L 16.953125 14.535156 L 18.796875 14.535156 L 16.058594 25.953125 L 13.84375 25.953125 Z M 19.914062 14.515625 L 23.363281 14.515625 C 25.449219 14.515625 26.367188 15.902344 26.367188 17.847656 C 26.367188 19.789062 25.222656 21.226562 23.183594 21.226562 L 21.652344 21.226562 L 21.652344 25.953125 L 19.914062 25.953125 Z M 21.652344 19.851562 L 22.886719 19.851562 C 23.816406 19.851562 24.625 19.324219 24.625 17.882812 C 24.625 16.644531 24.15625 15.894531 22.761719 15.894531 L 21.652344 15.894531 Z M 34.503906 21.851562 L 34.503906 22.09375 C 34.503906 24.175781 33.710938 26.183594 31.148438 26.183594 C 28.402344 26.183594 27.550781 24.324219 27.550781 20.242188 C 27.550781 16.160156 28.402344 14.300781 31.164062 14.300781 C 34.253906 14.300781 34.464844 16.699219 34.464844 17.886719 L 34.464844 18.117188 L 32.734375 18.117188 L 32.734375 17.921875 C 32.734375 16.867188 32.429688 15.644531 31.183594 15.695312 C 29.933594 15.742188 29.320312 16.527344 29.320312 20.214844 C 29.320312 23.898438 29.882812 24.800781 31.203125 24.800781 C 32.648438 24.800781 32.820312 23.101562 32.820312 22.023438 L 32.820312 21.832031 Z M 34.503906 21.851562 "/>
</g>
</svg>

<svg role="img" viewBox="0 0 46.545 32" xmlns="http://www.w3.org/2000/svg"><path d="M46.547 21.59v2.21c0 4.036-4.215 8.2-9.399 8.2H9.406C4.22 32 .008 27.836.008 23.8v-2.21Zm0 0" style="stroke:none;fill-rule:evenodd;fill:rgb(61.56863%,31.764707%,14.509805%);fill-opacity:1"/><path d="M17.918 0c4.672-.008 8.914 2.86 10.848 7.332a5.786 5.786 0 0 1 6.117-.434c1.96 1.036 3.234 3.11 3.32 5.415 4.692.41 8.344 5.167 8.344 8.94v.821c0 4.059-4.215 8.176-9.422 8.176H9.406C4.215 30.25 0 26.133 0 22.074v-.812c0-3.13 2.504-7.434 6.023-8.504v-.352c.012-3.304 1.274-6.469 3.504-8.793 2.23-2.328 5.25-3.625 8.391-3.613m0 0" style="stroke:none;fill-rule:evenodd;fill:rgb(96.078432%,52.156866%,20.784314%);fill-opacity:1"/><path d="M11.281 14.516h1.844l1.848 9.156 1.98-9.137h1.844l-2.738 11.418h-2.215Zm8.633 0h3.45c2.085 0 3.003 1.386 3.003 3.332 0 1.941-1.144 3.379-3.183 3.379h-1.532v4.726h-1.738Zm1.738 5.336h1.235c.93 0 1.738-.528 1.738-1.97 0-1.237-.469-1.987-1.863-1.987h-1.11Zm12.852 2v.242c0 2.082-.793 4.09-3.356 4.09-2.746 0-3.597-1.86-3.597-5.942s.851-5.941 3.613-5.941c3.09 0 3.3 2.398 3.3 3.586v.23h-1.73v-.195c0-1.055-.304-2.277-1.55-2.227-1.25.047-1.864.832-1.864 4.52 0 3.683.563 4.586 1.883 4.586 1.445 0 1.617-1.7 1.617-2.778v-.191Zm0 0" style="stroke:none;fill-rule:evenodd;fill:rgb(100%,100%,100%);fill-opacity:1"/></svg>
